X: 1
T: Blessings Of Silver, The
Z: Dargai
S: https://thesession.org/tunes/15660#setting29383
R: reel
M: 4/4
L: 1/8
K: Gmin
G/2A/2 || BdBF DGGF | (3D=EF CF DFCF | DGGA Bcdg | g^fdg fdcA |
Bdce dcBA | DGBG ^FDCA, | DGGA Bcdg | ^fdcA G3 :||
g | bga^f gfdc | =Bcd=e fdcd | bga=e f2 ge | fdcA BG[G,G]g |
(3bag (3ag^f gfdc |=Bcd=e fefa | gbag ^fag=e||1 =fdcA BGG2 :|2 =fdcA BGG2 ||
